icons/svg/link.svg

<svg width="24" height="24" viewBox="0 0 24 24" fill="none" xmlns="http://www.w3.org/2000/svg">
<path d="M9.62143 7.5H7.25C4.76472 7.5 2.75 9.51472 2.75 12V12C2.75 14.4853 4.76472 16.5 7.25 16.5H9.62143" stroke="currentColor" stroke-width="1.5" stroke-linecap="round" stroke-linejoin="round"/>
<path d="M14.3786 7.5H16.75C19.2353 7.5 21.25 9.51472 21.25 12V12C21.25 14.4853 19.2353 16.5 16.75 16.5H14.3786" stroke="currentColor" stroke-width="1.5" stroke-linecap="round" stroke-linejoin="round"/>
<path d="M7.24286 12H16.7571" stroke="currentColor" stroke-width="1.5" stroke-linecap="round" stroke-linejoin="round"/>
</svg>

<svg xmlns="http://www.w3.org/2000/svg" width="24" height="24" fill="none" viewBox="0 0 24 24"><path stroke="currentColor" stroke-linecap="round" stroke-linejoin="round" stroke-width="1.5" d="M9.621 7.5H7.25a4.5 4.5 0 0 0-4.5 4.5v0a4.5 4.5 0 0 0 4.5 4.5h2.371m4.758-9h2.371a4.5 4.5 0 0 1 4.5 4.5v0a4.5 4.5 0 0 1-4.5 4.5h-2.371M7.243 12h9.514"/></svg>
